X: 1
T:The Tempting Seamstress
M:4/4
L:1/8
Q:200
C:Stephen P. McNally
S:© 1997
N:For Voirrey Quilla
H:
K:AMix
A>ee>=c ^c>df>g|a>ee>=c ^c>dB>c|A>ee>=c ^c>df>g|a>ee>a d>da>=c|
c>ee>=c ^c>df>g|a>ee>=c ^c>dB>c|A>ee>=c ^c>df>g|a>ee>a c>=cB>A||
a>=c^c>a =c>^ca>=c|c>ae>a f>ae>a-|a>=c^c>a =c>^ca>e|f>ae>a c>=cB>A|
a>=c^c>a =c>^ca>=c|c>ae>a f>ae>a-|a>ee>a d>da>c|c>=c^c>=c ^c>=cB>A||
